!!!COM: Hummel, Johann Nepomuk
!!!CDT: 1778/11/14-1837/10/17
!!!OTL: Prelude in B major, op. 67, no. 21
!!!OPS: 67
!!!ONM: 21
!!!OMD: Allegro con brio.
!!!ODT: 1815
!!!AIN: piano
**kern	**kern	**dynam
*staff2	*staff1	*staff1/2
*Ipiano	*Ipiano	*
*I"21.	*I"21.	*
*clefF4	*clefG2	*
*k[b-e-]	*k[b-e-]	*
*B-:	*B-:	*
*met(c)	*met(c)	*
*M4/4	*M4/4	*
*MM152	*MM152	*
=1-	=1-	=1-
!	!	!LO:DY:b=2
*ped	*	*
[1BBB-^ [1BB-^>	16r	f
!	!	!LO:DY:rj
.	16dddLL	f
.	16fff	.
.	16dddJJ	.
.	16aaLL	.
.	16bb-	.
.	16ddd	.
.	16bb-JJ	.
.	16eenLL	.
.	16ff	.
.	16bb-	.
.	16ffJJ	.
.	16cc#LL	.
.	16dd	.
.	16ff	.
.	16ddJJ	.
=2	=2	=2
1BBB-] 1BB-]	16aLL	.
.	16b-	.
.	16dd	.
.	16b-JJ	.
.	16enLL	.
.	16f	.
.	16b-	.
.	16fJJ	.
.	16c#LL	.
.	16d	.
.	16f	.
.	16dJJ	.
*Xped	*	*
.	16ALL	.
.	16B-	.
.	16d	.
.	16B-JJ	.
=3	=3	=3
[1DD [1BB- [1D	16A-LL	.
.	16B-	.
.	16A-	.
.	16GJJ	.
.	16A-LL	<
.	16F	.
.	16G	.
.	16A-JJ	.
.	16B-LL	.
.	16c	.
.	16d	.
.	16e-JJ	.
.	16fLL	.
.	16g	.
.	16a-	.
.	16b-JJ	[
!!LO:LB:g=z
=4	=4	=4
1DD] 1BB-] 1D]	16ccLL	.
.	16dd	.
.	16ee-	.
.	16ffJJ	.
.	16ggLL	>
.	16aa-	.
.	16ff	.
.	16ddJJ	.
.	16b-LL	.
.	16a-	.
.	16f	.
.	16dJJ	.
.	16B-LL	.
.	16An	.
.	16B-	]
.	16A-JJ	.
=5	=5	=5
8E-''L	16GLL	.
.	16c	.
8EE-''	16B-	.
.	16cJJ	.
8FF	16AnLL	.
.	16c	.
8F''J	16d	.
.	16cJJ	<
8G''L>	16B-LL	.
.	16e-	.
8GG''	16d	.
.	16e-JJ	.
8AA''	16cLL	.
.	16e-	.
8A''J	16f	.
.	16e-JJ	.
=6	=6	=6
8B-''L	16dLL	.
.	16g	.
8BB-''	16f	.
.	16gJJ	.
8C''	16e-LL	.
.	16g	.
8c''J	16a	.
.	16gJJ	.
8d''L	16fLL	.
.	16b-	.
8D''	16a	.
.	16b-JJ	.
8E-''	16gLL	.
.	16b-	.
8e-''J	16cc	.
.	16b-JJ	.
!!LO:LB:g=z
=7	=7	=7
*^	*^	*
*ped	*	*	*	*
[1B- [1d-	(2.En 2.G	4ryy	16anLL	.
.	.	.	16b-	.
.	.	.	16dd-	.
.	.	.	16b-JJ	.
.	.	(4gg	16ggLL	.
.	.	.	16g	.
.	.	.	16dd-	.
.	.	.	16b-JJ	.
.	.	4gg	16ggLL	.
.	.	.	16g	.
*Xped	*	*	*	*
.	.	.	16dd-	.
.	.	.	16b-JJ	.
.	4F	4ff	16ffLL	.
.	.	.	16f	.
.	.	.	16dd-	.
.	.	.	16b-JJ	.
=8	=8	=8	=8	=8
*ped	*	*	*	*
2B-] 2d-]	&2G&))	4een)	16eenLL	.
.	.	.	16en	.
.	.	.	16dd-	.
.	.	.	16b-JJ	.
.	.	4ee	16eeLL	.
.	.	.	16e	.
.	.	.	16dd-	.
.	.	.	16b-JJ	.
*ped	*	*	*	*
!	!	!	!	!LO:HP:a
2B- 2d-	2G-	4ee	16eeLL	>
!	!	!LO:TX:c:i:t=ritard.	!	!
.	.	.	16e	.
.	.	.	16dd-	.
.	.	.	16b-JJ	.
.	.	4ee	16eeLL	.
.	.	.	16e	.
.	.	.	16dd-	.
.	.	.	16b-JJ	]
*v	*v	*	*	*
*	*v	*v	*
=9	=9	=9
*ped	*	*
*	*Xbrackettup	*
!	!LO:TUP:b	!
1F 1B- 1dn	12r	p
.	(12fL	.
.	12b-J	.
!LO:TX:a:i:t=stringendo	!LO:TUP:b	!
.	12fL	<
.	12ddn	.
.	12b-J	.
*	*Xtuplet	*
.	12ffL	.
.	12dd	.
.	12bb-J	.
.	12ffL	.
.	12ddd	.
.	12bb-J	[[
!!LO:LB:g=z
=10	=10	=10
*MM108	*MM108	*MM108
(2F 2B- 2d	4fff)	f
*	*rscale:2	*
*	*cue	*
!	!LO:TX:c:i:t=presto	!
.	(48fffLLL<	.
.	48eeen	.
.	48eee-	.
.	48ddd	.
.	48ddd-	.
.	48ccc	.
.	48bbn	.
.	48bb-	.
.	48aan	.
.	48aa-	.
.	48gg	.
.	48gg-	.
2r	48ff	.
.	48een	.
.	48ee-	.
.	48dd	.
.	48dd-	.
.	48cc	.
.	48bn	.
.	48b-	.
.	48an	>
.	48a-	.
.	48g	.
.	48g-	.
.	48f	.
*Xped	*	*
.	48en	.
!	!LO:TX:a:i:t=ritard.	!
.	48e-	.
.	48d	.
.	48d-	.
.	48c	.
*	*clefF4	*
.	48Bn	.
.	48B-	.
.	48An	.
.	48A-	.
.	48G	.
.	48G-JJJKKK	]
*	*rscale:1	*
*	*Xcue	*
=11	=11	=11
*MM72	*MM72	*MM72
*	*^	*
!	!	!	!LO:DY:t=%s andante
2r	8r	4F)	p
.	(4d	.	.
.	.	4E-	.
.	4c	.	.
!	!	!	!LO:DY:a=2
2FFF 2FF	.	4D	p
.	4B-	.	.
.	.	4C	.
.	8E- 8An)	.	.
=12	=12	=12	=12
*^	*	*	*
2ryy	2BBB- 2BB-	2E- 2A	2C	.
N(>16BBB-LL	2BBB-	4r	2ryy	.
16DD	.	.	.	.
16FF	.	.	.	.
16BB-JJ	.	.	.	.
*	*	*tuplet	*	*
4r	.	12DL<	.	.
.	.	12F	.	.
.	.	12B-JN)	.	.
*v	*v	*	*	*
*	*v	*v	*
=13	=13	=13
1BBB-	1r	.
==	==	==
*-	*-	*-
!!!RDF**kern: < = below
!!!RDF**kern: N = linked
!!!ENC: Craig Stuart Sapp
!!!END: 2008/06/12
!!!EED: Craig Stuart Sapp
!!!EEV: 2021/01/25
!!!YEC: Copyright 2008 by Craig Stuart Sapp
!!!YEN: United States of America
!!!RDF**kern: > = abov
